X: 1
T: Kath's Joy
M: 3/4
L: 1/8
R: waltz
K: Dmaj
dB4A/E/|:&quot;D&quot;F2d3F/D/|&quot;A&quot;E2c3E|&quot;G&quot;D2B3A|&quot;A&quot;FEF ABc|
&quot;D&quot;F2d3F/D/|&quot;A&quot;E2c2c<d|&quot;G&quot;B4B2|Bc AB GE|
&quot;D&quot;F2d3F/D/|&quot;A&quot;E2c3E|&quot;G&quot;D2B3A|&quot;A&quot;FEF ABc|
&quot;D&quot;F2d3F/D/|&quot;A&quot;E2c2c<d|&quot;G&quot;B4B2|BAB cde|
&quot;D&quot;f2d3f|&quot;A&quot;e2c3e/c/|&quot;G&quot;d2B2B/c/d|&quot;A&quot;cE A/B/c dB|
&quot;D&quot;f2d3f|&quot;A&quot;e2c3e|&quot;G&quot;edB4|BAB cde|
&quot;D&quot;f2fg/e/ f/e/d|&quot;G&quot;B2g2fg|&quot;A&quot;e2ed c/d/e|A3B c/d/e|
&quot;D&quot;d2fe dc|&quot;A&quot;BE cE d2|e6|&quot;D&quot;dB4A/E/:|
